src/images/sprites/svg/cloud.svg

<svg width="48" height="44" viewBox="0 0 48 44" fill="none" xmlns="http://www.w3.org/2000/svg">
<path d="M41.7687 13.4998C41.3883 6.50079 35.6065 0.947266 28.5315 0.947266C23.8148 0.947266 19.7067 3.38169 17.3483 7.03332C16.2072 7.10939 15.1421 7.26155 14.077 7.56585L12.4795 4.82712C10.2733 5.58788 8.21921 6.72902 6.54554 8.25053L8.14312 10.9893C6.84983 12.2825 5.7087 13.8041 5.02402 15.4777L1.98098 14.8691C1.22022 16.8471 0.839844 18.9772 0.839844 21.2595C0.839844 21.4116 0.839844 21.4116 0.839844 21.4877L3.95895 22.2485C4.1111 24.0743 4.56756 25.7479 5.32832 27.2694L2.89389 29.1713C4.03503 31.2254 5.48047 32.9751 7.3063 34.4206L9.74072 32.5187C12.023 34.1923 14.9139 35.1813 17.9569 35.1813C21.4564 35.1813 32.1831 35.1813 35.4544 35.1813C41.9969 35.1813 47.2461 29.9321 47.2461 23.3896C47.1701 19.2815 45.0399 15.6299 41.7687 13.4998Z" stroke="black" stroke-miterlimit="10" stroke-linecap="round" stroke-linejoin="round"/>
<path d="M21.1322 38.0053L21.1322 43.2685L17.3045 43.2685L17.3045 38.0053L15.0078 38.0053L19.2183 32.7422L23.4289 38.0053L21.1322 38.0053Z" fill="white" stroke="black" stroke-miterlimit="10" stroke-linecap="round" stroke-linejoin="round"/>
<path d="M32.3461 14.8477L27.1449 14.8477L27.1449 29.0412L23.4297 29.0412L29.7455 38.0056L36.0613 29.0412L32.3461 29.0412L32.3461 14.8477Z" fill="white" stroke="black" stroke-miterlimit="10" stroke-linecap="round" stroke-linejoin="round"/>
</svg>

<svg xmlns="http://www.w3.org/2000/svg" width="48" height="44" fill="none" viewBox="0 0 48 44">
	<path stroke="#000" stroke-linecap="round" stroke-linejoin="round" stroke-miterlimit="10" d="M41.769 13.5C41.389 6.5 35.606.947 28.532.947a13.274 13.274 0 0 0-11.184 6.086c-1.14.076-2.206.229-3.271.533l-1.598-2.739c-2.206.76-4.26 1.902-5.933 3.424l1.597 2.738c-1.293 1.293-2.434 2.815-3.119 4.489l-3.043-.609C1.221 16.847.84 18.977.84 21.26v.229l3.119.76c.152 1.826.609 3.5 1.37 5.021l-2.435 1.902c1.141 2.054 2.586 3.804 4.412 5.25l2.435-1.902c2.282 1.673 5.173 2.662 8.216 2.662h17.497c6.543 0 11.792-5.249 11.792-11.791a12.053 12.053 0 0 0-5.477-9.89z"/>
	<path fill="#fff" stroke="#000" stroke-linecap="round" stroke-linejoin="round" stroke-miterlimit="10" d="M21.132 38.005v5.264h-3.828v-5.264h-2.296l4.21-5.263 4.21 5.263h-2.296zM32.346 14.848h-5.201V29.04H23.43l6.316 8.965 6.315-8.965h-3.715V14.848z"/>
</svg>
